X: 27408
T: Moheravogue
R: reel
M: 4/4
K: Adorian
EAAB cBce|dB~B2 gB~B2|EAAB cBce|dBGA BAAG|
EAAB cBce|dB~B2 gB~B2|~A3B cBce|dBGA BAA2||
eaag abag|efga gedg|eaag abaf|geGA BAA2|
eaag abag|efga gfga|gA(3AAA cBce|dBGA BAA2||

